X: 160
T:
T:Doherty's
R:Reel
C:Johnny Doherty
M:C|
L:1/8
Q:1/2=112
K:D
|:~F3G FEDE|FAAB AFED|d2 (3efg fdec|dBAF BE~E2|
~F3G FEDE|FAAB AFED|d2 (3efg fdec|dBAG FD~D2:|
d2AG FDFA|dfaf gfeg|fAdf eAce|dfed cA~A2|
BDGB ADFA|dfaf gfed|(3Bcd ce dBAG|FAEA D3z:|
